svg/u1f966.svg

<svg viewBox="0 0 128 128" xmlns="http://www.w3.org/2000/svg">
  <path d="M21.74,24.77L8.57,41.04c0,0-3.95,4.95-2.93,9.84c1.15,5.46,4.05,5.79,4.05,5.79 s-0.19,4.24,2.31,7.85s3.69,5.32,12.77,8.07s25.46,5.84,25.46,5.84l4.22,16.38c0,0,1.13,4.05,6.16,6.16s8.96,1.56,8.96,1.56 s2.08,5.75,8.99,7.35c5.98,1.39,10.75-1.62,10.75-1.62s5.03,3.08,11.51,1.62c7.52-1.69,9.24-6.32,9.24-6.32s6.16-0.65,10.21-6.49 s1.13-12.48,1.13-12.48s3.59-5.32,2.59-11.35c-0.9-5.46-3.07-7.32-3.07-7.32l-12.98-9.06c0,0,5.51-2.27,7.46-12 s-2.92-14.59-2.92-14.59s1.91-5.49-1.3-10.38c-3.08-4.7-7.46-2.43-9.57-4.54c-2.6-2.6-17.35-4.22-17.35-4.22L67.25,25.26 L21.74,24.77z" fill="#2F7C31"/>
  <path d="M28,8.45c0,0,5.09-5.58,11.92-5.09s8.07,4.61,8.07,4.61s4.19-0.69,6.82,0.48 c5.38,2.4,4.81,5.19,6.44,5s1.63-7.11,9.23-9.52s11.73,1.25,13.36,1.15s3.65-2.03,9.42-0.19c5.19,1.66,6.3,5.1,6.54,6.15 c0.28,1.27,0.28,2.69,1.82,4.32s-0.11,7.54-2.32,9.94s-6.52,2.65-6.52,2.65s1.01,8.3-5.89,12.86c-4.85,3.2-10.07,1.94-10.07,1.94 S71.25,47.57,65,45.55c-6.25-2.02-6.92-4.61-3.46-7.5c3.46-2.88,5-8.46,0.87-9.52c-4.13-1.06-8.36,0.96-9.8,5.48 c-1.44,4.52-1.54,8.46-6.25,11.82c-4.71,3.36-8.17,2.31-12.88,3.56c-4.71,1.25-7.88,5.29-11.82,5.38c-3.94,0.1-7.02-2.79-9.04-2.5 c-2.02,0.29-6.15,1.25-6.15,1.25s-1.83-3.46-0.67-7.69s2.78-4.8,2.78-4.8s-9.37-9.06-0.76-22.88C15.6,5.66,28,8.45,28,8.45z" fill="#709921"/>
  <path d="M79.71,73.23c0,0,3.65-1.54,6.06-5.67c2.4-4.13,3.65-7.21,7.5-9.23c3.84-2.02,8.17-1.83,13.75-1.54 c5.58,0.29,6.99,1.99,8.36,3.36c2.69,2.69,5.58,5.77,5.58,5.77s-4.71,0.38-7.21,4.23s-4.04,9.13-4.04,9.13s-3.36,1.25-6.92,3.17 c-3.56,1.92-11.44,7.02-16.63,5.67c-5.19-1.35-7.88-7.31-7.88-7.98C78.27,79.48,79.71,73.23,79.71,73.23z" fill="#709921"/>
  <path d="M35.34,81.83c-0.24,0.72-25.28,28.89-25.28,28.89s3.01,4.57,5.66,6.74s6.95,5.41,9.68,6.15 c2.96,0.8,5.24,1.68,7.89-1.81c2.65-3.49,4.69-8.06,11.92-15.77s12.4-12.4,18.17-15.17s14.08-4.69,16.25-4.93 c2.17-0.24,4.93-0.48,4.93-0.48s1.63-3.29,1.08-5.9c-0.61-2.91-4.69-4.21-4.69-4.21l-20.7,3.01l2.45-0.82c0,0-0.97-1.43,0.32-3.28 c1.12-1.61,6.26-7.83,7.95-10.12c1.69-2.29,5.12-6.73,5.05-7.45c-0.12-1.32-3.25-3.01-4.21-3.61c-0.96-0.6-3.01-1.44-3.01-1.44 L46.65,74.6l-1.2-1.08c0,0-1.44-0.07-2.29-2.29c-0.6-1.56-0.84-6.26-1.32-10.35c-0.3-2.56-0.48-5.54-0.48-5.54s-3.49-1.56-5.78-1.32 s-4.93,2.77-4.93,2.77L35.34,81.83z" fill="#9FB525"/>
  <path d="M26.91,57.51c-0.36,0.96,0.24,5.3,0.24,11.07s-0.33,11.12-3.13,14.56 c-3.61,4.45-9.75,10.71-14.44,14.92c-2.03,1.82-3.37,2.53-3.49,3.01s0.87,4.86,1.81,6.74c1.7,3.4,4.82,6.49,4.82,6.49 s12.51-14.07,17.81-19.49c5.3-5.42,8.18-9.03,9.39-7.82c1.2,1.2-2.79,5.89-5.66,9.15c-4.33,4.93-16.47,22.92-16.47,22.92 s0.67,0.7,2.03,1.63c1.2,0.83,2.14,1.26,2.14,1.26s6.4-10.41,15.31-19.8s13.96-13.72,20.1-15.77s28.28-6.86,28.28-6.86 s-0.96-3.37-1.56-4.81s-1.93-3.13-1.93-3.13s-11.07,2.89-13,3.49c-1.93,0.6-12.88,1.93-13.36,0.72c-0.48-1.2,7.34-10.95,9.63-13.96 c2.29-3.01,6.43-8.79,6.43-8.79s-2.45-1.68-5.46-2.4c-3.01-0.72-4.09-0.12-4.09-0.12s-7.34,9.87-9.51,12.76 c-2.17,2.89-6.38,9.15-10.23,10.23c-3.85,1.08-4.81,0.12-5.3-2.77c-0.48-2.89-1.69-16.73-1.69-16.73s-3.85,0.24-5.3,0.96 S27.27,56.55,26.91,57.51z" fill="#B7D118"/>
  <path d="M102.96,75.13c0,0,2.24-4.05,4.17-2.36c1.94,1.69-1.75,7.02-2.54,7.2c-0.79,0.18-6.95-1.87-6.05-4.17 C99.46,73.5,102.96,75.13,102.96,75.13z" fill="#2F7C31"/>
  <path d="M44.78,34.49c2.3-0.08,7.13-4.8,5.09-7.25c-1.65-1.98-5.09,1.86-5.09,1.86s-3.64-3.75-5.08-1.94 C37.65,29.78,43.09,34.55,44.78,34.49z" fill="#2F7C31"/>
  <path d="M31.96,39.21c0,0,2-4.11,4.29-2.36c2.3,1.75-1.69,7.68-2.9,8.04c-1.21,0.36-7.71-3.36-5.99-5.99 C28.76,36.79,31.96,39.21,31.96,39.21z" fill="#2F7C31"/>
  <path d="M14.36,35.46c0.72,0.12,5.87-2.78,4.41-5.32s-4.41,0.67-4.41,0.67s-2.79-2.47-3.99-0.97 C8.44,32.26,13.28,35.28,14.36,35.46z" fill="#2F7C31"/>
  <path d="M15.27,43.81c0,0,1.94-3.99,3.99-2.48c2.06,1.51-1.51,7.56-2.06,7.8c-0.54,0.24-7.81-1.81-6.23-4.72 C12.07,42.42,15.27,43.81,15.27,43.81z" fill="#2F7C31"/>
  <path d="M79.21,39.31c1.59-0.69,4.25-6.07,1.76-7.16c-2.01-0.88-3.06,2.4-3.06,2.4s-2.23-1.96-3.76-0.35 C71.8,36.67,78.25,39.73,79.21,39.31z" fill="#2F7C31"/>
  <path d="M90.51,18.38c0,0,0.13-2.34,1.93-2.22c1.98,0.14,1.72,5.02,0.21,5.94c-1.51,0.92-6.49-1.72-5.36-3.56 C88.01,17.37,90.64,18.17,90.51,18.38z" fill="#2F7C31"/>
</svg>

<svg viewBox="0 0 128 128" xmlns="http://www.w3.org/2000/svg">
  <defs/>
  <path d="M21.74,24.77 L8.57,41.04 C8.57,41.04 4.62,45.99 5.64,50.88 C6.79,56.34 9.69,56.67 9.69,56.67 C9.69,56.67 9.5,60.91 12,64.52 C14.5,68.13 15.69,69.84 24.77,72.59 C33.85,75.34 50.23,78.43 50.23,78.43 L54.45,94.81 C54.45,94.81 55.58,98.86 60.61,100.97 C65.64,103.08 69.57,102.53 69.57,102.53 C69.57,102.53 71.65,108.28 78.56,109.88 C84.54,111.27 89.31,108.26 89.31,108.26 C89.31,108.26 94.34,111.34 100.82,109.88 C108.34,108.19 110.06,103.56 110.06,103.56 C110.06,103.56 116.22,102.91 120.27,97.07 C124.32,91.23 121.4,84.59 121.4,84.59 C121.4,84.59 124.99,79.27 123.99,73.24 C123.09,67.78 120.92,65.92 120.92,65.92 L107.94,56.86 C107.94,56.86 113.45,54.59 115.4,44.86 C117.35,35.13 112.48,30.27 112.48,30.27 C112.48,30.27 114.39,24.78 111.18,19.89 C108.1,15.19 103.72,17.46 101.61,15.35 C99.01,12.75 84.26,11.13 84.26,11.13 L67.25,25.26 L21.74,24.77 Z" fill="#2F7C31"/>
  <path d="M28,8.45 C28,8.45 33.09,2.87 39.92,3.36 C46.75,3.85 47.99,7.97 47.99,7.97 C47.99,7.97 52.18,7.28 54.81,8.45 C60.19,10.85 59.62,13.64 61.25,13.45 C62.88,13.26 62.88,6.34 70.48,3.93 C78.08,1.52 82.21,5.18 83.84,5.08 C85.47,4.98 87.49,3.05 93.26,4.89 C98.45,6.55 99.56,9.99 99.8,11.04 C100.08,12.31 100.08,13.73 101.62,15.36 C103.16,16.99 101.51,22.9 99.3,25.3 C97.09,27.7 92.78,27.95 92.78,27.95 C92.78,27.95 93.79,36.25 86.89,40.81 C82.04,44.01 76.82,42.75 76.82,42.75 C76.82,42.75 71.25,47.57 65,45.55 C58.75,43.53 58.08,40.94 61.54,38.05 C65,35.17 66.54,29.59 62.41,28.53 C58.28,27.47 54.05,29.49 52.61,34.01 C51.17,38.53 51.07,42.47 46.36,45.83 C41.65,49.19 38.19,48.14 33.48,49.39 C28.77,50.64 25.6,54.68 21.66,54.77 C17.72,54.87 14.64,51.98 12.62,52.27 C10.6,52.56 6.47,53.52 6.47,53.52 C6.47,53.52 4.64,50.06 5.8,45.83 C6.96,41.6 8.58,41.03 8.58,41.03 C8.58,41.03 -0.79,31.97 7.82,18.15 C15.6,5.66 28,8.45 28,8.45 Z" fill="#709921"/>
  <path d="M79.71,73.23 C79.71,73.23 83.36,71.69 85.77,67.56 C88.17,63.43 89.42,60.35 93.27,58.33 C97.11,56.31 101.44,56.5 107.02,56.79 C112.6,57.08 114.01,58.78 115.38,60.15 C118.07,62.84 120.96,65.92 120.96,65.92 C120.96,65.92 116.25,66.3 113.75,70.15 C111.25,74 109.71,79.28 109.71,79.28 C109.71,79.28 106.35,80.53 102.79,82.45 C99.23,84.37 91.35,89.47 86.16,88.12 C80.97,86.77 78.28,80.81 78.28,80.14 C78.27,79.48 79.71,73.23 79.71,73.23 Z" fill="#709921"/>
  <path d="M35.34,81.83 C35.1,82.55 10.06,110.72 10.06,110.72 C10.06,110.72 13.07,115.29 15.72,117.46 C18.37,119.63 22.67,122.87 25.4,123.61 C28.36,124.41 30.64,125.29 33.29,121.8 C35.94,118.31 37.98,113.74 45.21,106.03 C52.44,98.32 57.61,93.63 63.38,90.86 C69.15,88.09 77.46,86.17 79.63,85.93 C81.8,85.69 84.56,85.45 84.56,85.45 C84.56,85.45 86.19,82.16 85.64,79.55 C85.03,76.64 80.95,75.34 80.95,75.34 L60.25,78.35 L62.7,77.53 C62.7,77.53 61.73,76.1 63.02,74.25 C64.14,72.64 69.28,66.42 70.97,64.13 C72.66,61.84 76.09,57.4 76.02,56.68 C75.9,55.36 72.77,53.67 71.81,53.07 C70.85,52.47 68.8,51.63 68.8,51.63 L46.65,74.6 L45.45,73.52 C45.45,73.52 44.01,73.45 43.16,71.23 C42.56,69.67 42.32,64.97 41.84,60.88 C41.54,58.32 41.36,55.34 41.36,55.34 C41.36,55.34 37.87,53.78 35.58,54.02 C33.29,54.26 30.65,56.79 30.65,56.79 L35.34,81.83 Z" fill="#9FB525"/>
  <path d="M26.91,57.51 C26.55,58.47 27.15,62.81 27.15,68.58 C27.15,74.35 26.82,79.7 24.02,83.14 C20.41,87.59 14.27,93.85 9.58,98.06 C7.55,99.88 6.21,100.59 6.09,101.07 C5.97,101.55 6.96,105.93 7.9,107.81 C9.6,111.21 12.72,114.3 12.72,114.3 C12.72,114.3 25.23,100.23 30.53,94.81 C35.83,89.39 38.71,85.78 39.92,86.99 C41.12,88.19 37.13,92.88 34.26,96.14 C29.93,101.07 17.79,119.06 17.79,119.06 C17.79,119.06 18.46,119.76 19.82,120.69 C21.02,121.52 21.96,121.95 21.96,121.95 C21.96,121.95 28.36,111.54 37.27,102.15 C46.18,92.76 51.23,88.43 57.37,86.38 C63.51,84.33 85.65,79.52 85.65,79.52 C85.65,79.52 84.69,76.15 84.09,74.71 C83.49,73.27 82.16,71.58 82.16,71.58 C82.16,71.58 71.09,74.47 69.16,75.07 C67.23,75.67 56.28,77 55.8,75.79 C55.32,74.59 63.14,64.84 65.43,61.83 C67.72,58.82 71.86,53.04 71.86,53.04 C71.86,53.04 69.41,51.36 66.4,50.64 C63.39,49.92 62.31,50.52 62.31,50.52 C62.31,50.52 54.97,60.39 52.8,63.28 C50.63,66.17 46.42,72.43 42.57,73.51 C38.72,74.59 37.76,73.63 37.27,70.74 C36.79,67.85 35.58,54.01 35.58,54.01 C35.58,54.01 31.73,54.25 30.28,54.97 C28.83,55.69 27.27,56.55 26.91,57.51 Z" fill="#B7D118"/>
  <path d="M102.96,75.13 C102.96,75.13 105.2,71.08 107.13,72.77 C109.07,74.46 105.38,79.79 104.59,79.97 C103.8,80.15 97.64,78.1 98.54,75.8 C99.46,73.5 102.96,75.13 102.96,75.13 Z" fill="#2F7C31"/>
  <path d="M44.78,34.49 C47.08,34.41 51.91,29.69 49.87,27.24 C48.22,25.26 44.78,29.1 44.78,29.1 C44.78,29.1 41.14,25.35 39.7,27.16 C37.65,29.78 43.09,34.55 44.78,34.49 Z" fill="#2F7C31"/>
  <path d="M31.96,39.21 C31.96,39.21 33.96,35.1 36.25,36.85 C38.55,38.6 34.56,44.53 33.35,44.89 C32.14,45.25 25.64,41.53 27.36,38.9 C28.76,36.79 31.96,39.21 31.96,39.21 Z" fill="#2F7C31"/>
  <path d="M14.36,35.46 C15.08,35.58 20.23,32.68 18.77,30.14 C17.31,27.6 14.36,30.81 14.36,30.81 C14.36,30.81 11.57,28.34 10.37,29.84 C8.44,32.26 13.28,35.28 14.36,35.46 Z" fill="#2F7C31"/>
  <path d="M15.27,43.81 C15.27,43.81 17.21,39.82 19.26,41.33 C21.32,42.84 17.75,48.89 17.2,49.13 C16.66,49.37 9.39,47.32 10.97,44.41 C12.07,42.42 15.27,43.81 15.27,43.81 Z" fill="#2F7C31"/>
  <path d="M79.21,39.31 C80.8,38.62 83.46,33.24 80.97,32.15 C78.96,31.27 77.91,34.55 77.91,34.55 C77.91,34.55 75.68,32.59 74.15,34.2 C71.8,36.67 78.25,39.73 79.21,39.31 Z" fill="#2F7C31"/>
  <path d="M90.51,18.38 C90.51,18.38 90.64,16.04 92.44,16.16 C94.42,16.3 94.16,21.18 92.65,22.1 C91.14,23.02 86.16,20.38 87.29,18.54 C88.01,17.37 90.64,18.17 90.51,18.38 Z" fill="#2F7C31"/>
</svg>
